X: 805
T: Farewell to Ireland
B: Francis O'Neill: "The Dance Music of Ireland" (1907) #805
R: reel
%S: s:4 b:32(8+8+8+8)
Z: Frank Nordberg - http://www.musicaviva.com
F: http://www.musicaviva.com/abc/tunes/ireland/oneill-1001/0805/oneill-1001-0805-1.abc
%m: Tn = (3n/o/n/
%m: Tn3 = n(3n/o/n/ m/n/
M: C|
L: 1/8
K: Amix
B, |\
TA,3(B, ED)EF | GED(B, G,B,D)B, | A,G, (3(A,B,C) D2 (AF) | GEDB, ETA,-A,2 ||\
A,(G,A,C) E2(EF) | GED(B, DG,)G,g | ed (3(efg) abaf | (3(gfe d)f eAA |]
[| g |\
a2 (ab) agef | ga (3(gfe) dB(Gg) | a(gab) aged | g(edB) (3AAA (Ag) ||\
age(f g2)fe | d(edB) GABd | (3(cBA) (3(dcB) ecA(a | g)edB BAA |]
[| d |\
eA (3AAA (ed)ce | dG (3GGG (BG)Bd | e(Acd) edBa | (3(gfe) dB A(Bcd) ||\
eA (3AAA (ed)ce | d(edB) GABd | (3(cBA) (3(dcB) ecA(a | (3g)(edB) BAA |]
[| e |\
a(ece) age(f | g)dBd gd (3(efg) | a(ece) aged | g(edB) (3AAA (Ag) ||\
a(ece) a2(ef) | ga (3(gfe) dBGB | (3(cBA) (3(dcB) ecA(a | (3g)(fe) dB BAA |]
